docs/icons/alipay.svg

<svg width="128" height="128" viewBox="0 0 128 128" fill="none" xmlns="http://www.w3.org/2000/svg">
 
<path fill-rule="evenodd" clip-rule="evenodd" d="M58 17C56.3431 17 55 18.3431 55 20V32H24V37H55V46.5H29V52H79.5L71.9999 69.5C71.9999 69.5 45 58.8636 30.5 61.5C16 64.1364 7.07159 73.1566 8 86C9.00813 99.9463 22.5172 107 36.4999 107C60.4999 107 76.9999 85.5 76.9999 85.5L128 107V87L84.5 73.5C84.5 73.5 94 59.5 95 46.5H70V37H101V32H70V17H58ZM64.9999 79.5C48 68.5 13 64 12.5 83.5C11.9871 103.497 49.5 105 64.9999 79.5Z" fill="white"/>
</svg>

<svg xmlns="http://www.w3.org/2000/svg" width="128" height="128" fill="none" xmlns:v="https://vecta.io/nano"><path fill-rule="evenodd" d="M58 17a3 3 0 0 0-3 3v12H24v5h31v9.5H29V52h50.5L72 69.5s-27-10.636-41.5-8S7.072 73.157 8 86c1.008 13.946 14.517 21 28.5 21 24 0 40.5-21.5 40.5-21.5l51 21.5V87L84.5 73.5s9.5-14 10.5-27H70V37h31v-5H70V17H58zm7 62.5c-17-11-52-15.5-52.5 4-.513 19.997 37 21.5 52.5-4z" fill="#fff"/></svg>
